assets/icons/file.svg

<svg width="30" height="30" viewBox="0 0 30 30" fill="none" xmlns="http://www.w3.org/2000/svg">
<path d="M7.27408 16.99L18.971 5.00713C19.0964 4.87875 20.099 3.85164 21.6864 3.29529C23.9005 2.56776 26.1563 3.1669 27.9526 5.00713C29.7907 6.84736 30.3338 9.11555 29.6236 11.3837C29.1223 13.01 28.078 14.1227 27.9526 14.2511L15.3784 27.1327C13.2061 29.3581 7.77538 32.2254 2.7624 27.1327C-2.20881 22.0399 0.631878 16.4337 2.7624 14.2511L16.2557 0.385164C16.757 -0.128388 17.5507 -0.128388 18.052 0.385164C18.5533 0.898716 18.5533 1.71184 18.052 2.22539L4.60049 16.0913C4.39161 16.2625 0.172355 20.7561 4.60049 25.2924C8.9033 29.7004 13.1226 25.7632 13.5821 25.2924L26.1563 12.368C26.1563 12.368 26.8665 11.6405 27.2007 10.6134C27.6184 9.24394 27.326 8.04565 26.1563 6.84736C23.6498 4.2796 21.2269 6.4194 20.7674 6.84736L9.0704 18.7874C8.65265 19.2154 8.36022 19.9429 9.0704 20.6705C9.78057 21.398 10.449 21.0556 10.8667 20.6705L18.971 12.368C19.4723 11.8973 20.3078 11.8973 20.7674 12.368C21.2687 12.8816 21.2687 13.7375 20.7674 14.2511L12.663 22.5107C11.5351 23.6234 9.2375 24.5221 7.27408 22.5107C5.26889 20.4993 6.14616 18.1027 7.27408 16.99Z" fill="#B791F5"/>
</svg>

<svg width="30" height="30" viewBox="0 0 30 30" fill="none" xmlns="http://www.w3.org/2000/svg"><path d="M7.274 16.99L18.971 5.007c.125-.128 1.128-1.155 2.715-1.712 2.215-.727 4.47-.128 6.267 1.712 1.838 1.84 2.38 4.109 1.67 6.377a7.69 7.69 0 01-1.67 2.867L15.378 27.133c-2.172 2.225-7.603 5.092-12.616 0-4.97-5.093-2.13-10.7 0-12.882L16.256.385a1.24 1.24 0 011.796 0 1.314 1.314 0 010 1.84L4.6 16.091c-.208.171-4.428 4.665 0 9.201 4.303 4.408 8.523.471 8.982 0l12.574-12.924s.71-.728 1.045-1.755c.417-1.37.125-2.567-1.045-3.766-2.506-2.567-4.93-.428-5.389 0L9.07 18.787c-.417.428-.71 1.156 0 1.884.71.727 1.379.385 1.797 0l8.104-8.303c.501-.47 1.337-.47 1.796 0 .502.514.502 1.37 0 1.883l-8.104 8.26c-1.128 1.112-3.425 2.011-5.389 0-2.005-2.012-1.128-4.408 0-5.521z" fill="#B791F5"/></svg>
